awards/double-time.svg

<svg width="50" height="50" xmlns="http://www.w3.org/2000/svg"><path d="M50 25c0 13.807-11.193 25-25 25S0 38.807 0 25 11.193 0 25 0s25 11.193 25 25zm-28.922 6.363 2.77-2.6-4.14-4.23 4.14-4.22-2.77-2.6-4.04 4.11-4.03-4.11-2.77 2.6 4.14 4.22-4.14 4.23 2.77 2.6 4.03-4.12zm18.458-2.66h-3.66l-.2 1.69h-4.03l-.02-.07 3.06-3.24c1.073-1.133 1.933-2.1 2.58-2.9.647-.793 1.11-1.543 1.39-2.25.287-.7.43-1.467.43-2.3 0-1.227-.283-2.297-.85-3.21-.56-.913-1.36-1.623-2.4-2.13-1.047-.5-2.297-.75-3.75-.75-1.46 0-2.727.297-3.8.89-1.08.593-1.903 1.393-2.47 2.4-.573 1.013-.847 2.147-.82 3.4l.03.08h4.77c0-.913.187-1.643.56-2.19.373-.54.943-.81 1.71-.81.707 0 1.237.23 1.59.69.353.453.53 1.01.53 1.67 0 .4-.077.813-.23 1.24-.153.427-.403.897-.75 1.41-.34.507-.803 1.093-1.39 1.76l-6.53 6.88v3.13h14.25z" style="fill:#dd6969"/></svg>

<?xml version="1.0" encoding="utf-8"?>
<svg width="50" height="50" xmlns="http://www.w3.org/2000/svg">
  <path d="M 50 25 C 50 38.807 38.807 50 25 50 C 11.193 50 0 38.807 0 25 C 0 11.193 11.193 0 25 0 C 38.807 0 50 11.193 50 25 Z M 21.078 31.363 L 23.848 28.763 L 19.708 24.533 L 23.848 20.313 L 21.078 17.713 L 17.038 21.823 L 13.008 17.713 L 10.238 20.313 L 14.378 24.533 L 10.238 28.763 L 13.008 31.363 L 17.038 27.243 Z M 39.536 28.703 L 35.876 28.703 L 35.676 30.393 L 31.646 30.393 L 31.626 30.323 L 34.686 27.083 C 35.759 25.95 36.619 24.983 37.266 24.183 C 37.913 23.39 38.376 22.64 38.656 21.933 C 38.943 21.233 39.086 20.466 39.086 19.633 C 39.086 18.406 38.803 17.336 38.236 16.423 C 37.676 15.51 36.876 14.8 35.836 14.293 C 34.789 13.793 33.539 13.543 32.086 13.543 C 30.626 13.543 29.359 13.84 28.286 14.433 C 27.206 15.026 26.383 15.826 25.816 16.833 C 25.243 17.846 24.969 18.98 24.996 20.233 L 25.026 20.313 L 29.796 20.313 C 29.796 19.4 29.983 18.67 30.356 18.123 C 30.729 17.583 31.299 17.313 32.066 17.313 C 32.773 17.313 33.303 17.543 33.656 18.003 C 34.009 18.456 34.186 19.013 34.186 19.673 C 34.186 20.073 34.109 20.486 33.956 20.913 C 33.803 21.34 33.553 21.81 33.206 22.323 C 32.866 22.83 32.403 23.416 31.816 24.083 L 25.286 30.963 L 25.286 34.093 L 39.536 34.093 Z" style="fill: rgb(221, 105, 105);"/>
</svg>
